src/assets/icons/tab-bar/contact-tracing-alert.svg

<?xml version="1.0" encoding="UTF-8"?>
<svg width="32px" height="24px" viewBox="0 0 32 24" version="1.1" xmlns="http://www.w3.org/2000/svg" xmlns:xlink="http://www.w3.org/1999/xlink">
    <title>tab-contact-tracing-alert</title>
    <g id="tab-contact-tracing-alert" stroke="none" stroke-width="1" fill="none" fill-rule="evenodd">
        <path d="M15.5948541,4.31840383 C16.5797742,3.81839763 17.7835448,4.21149802 18.283551,5.19641811 L18.283551,5.19641811 L23.8161701,16.0946587 C23.9585893,16.3751982 24.0328146,16.6853801 24.0328146,17 C24.0328146,18.1045695 23.1373841,19 22.0328146,19 L22.0328146,19 L10.9675762,19 C10.6529563,19 10.3427744,18.9257748 10.0622349,18.7833556 C9.07731479,18.2833494 8.68421441,17.0795788 9.1842206,16.0946587 L9.1842206,16.0946587 L14.7168398,5.19641811 C14.9089453,4.81800557 15.2164415,4.51050937 15.5948541,4.31840383 Z M17.4769626,14.9255379 L15.5234281,14.9255379 L15.5234281,16.962769 L17.4769626,16.962769 L17.4769626,14.9255379 Z M17.4769626,7.79522927 L15.5234281,7.79522927 L15.5234281,12.8883069 L17.4769626,12.8883069 L17.4769626,7.79522927 Z" id="Combined-Shape" fill="currentColor" fill-rule="nonzero"></path>
    </g>
</svg>

<svg width="32" height="24" xmlns="http://www.w3.org/2000/svg"><path d="M15.595 4.318a2 2 0 012.689.878l5.532 10.899A2 2 0 0122.033 19H10.968a2 2 0 01-1.784-2.905l5.533-10.899a2 2 0 01.878-.878zm1.882 10.608h-1.954v2.037h1.954v-2.037zm0-7.13h-1.954v5.092h1.954V7.795z" fill="currentColor" fill-rule="nonzero"/></svg>
